Newaita-dark/apps/22/marktext.svg

<svg height="22" viewBox="0 0 22 22" width="22" xmlns="http://www.w3.org/2000/svg" xmlns:xlink="http://www.w3.org/1999/xlink"><linearGradient id="a" gradientTransform="matrix(.0511582 0 0 .0429729 -1.808356 9.239165)" gradientUnits="userSpaceOnUse" x1="254" x2="254" y1="233.5" y2="254.666672"><stop offset="0" stop-opacity=".27451"/><stop offset="1" stop-opacity="0"/></linearGradient><linearGradient id="b"><stop offset="0" stop-opacity=".313726"/><stop offset=".222222" stop-opacity=".27451"/><stop offset="1" stop-opacity="0"/></linearGradient><radialGradient id="c" cx="450.908936" cy="189.579361" gradientTransform="matrix(.00000012 -.0537161 -.0966889 -.00000007 34.702833 43.721791)" gradientUnits="userSpaceOnUse" r="21.166656" xlink:href="#b"/><radialGradient id="d" cx="450.908936" cy="189.579361" gradientTransform="matrix(-.00000012 .0537161 .0966889 .00000007 -12.872623 -5.175142)" gradientUnits="userSpaceOnUse" r="21.166656" xlink:href="#b"/><radialGradient id="e" cx="450.908936" cy="189.579361" gradientTransform="matrix(-.00000012 -.0537161 .0966889 -.00000007 -12.872623 43.721791)" gradientUnits="userSpaceOnUse" r="21.166656" xlink:href="#b"/><radialGradient id="f" cx="450.908936" cy="189.579361" gradientTransform="matrix(.00000012 .0537161 -.0966889 .00000007 34.702832 -5.175142)" gradientUnits="userSpaceOnUse" r="21.166656" xlink:href="#b"/><linearGradient id="g" gradientUnits="userSpaceOnUse" x1="10.9151166" x2="10.9151166" y1="19.27333515" y2="1.99106697081"><stop offset="0" stop-color="#e0e0e0"/><stop offset="1" stop-color="#eee"/></linearGradient><linearGradient id="h"><stop offset="0" stop-color="#757575"/><stop offset="1" stop-color="#616161"/></linearGradient><linearGradient id="i" gradientUnits="userSpaceOnUse" x1="17.737064475" x2="17.737064475" xlink:href="#h" y1="1.99106765838" y2="19.27333515"/><linearGradient id="j" gradientUnits="userSpaceOnUse" x1="12.73430762009" x2="12.73430762009" xlink:href="#h" y1="1.9910818667" y2="19.27335354616"/><path d="m5.230469 19.273438h11.371093v.910156h-11.371093zm0 0" fill="url(#a)"/><path d="m16.601562 19.273438h1.816407v-.910157h-1.816407zm0 0" fill="url(#c)"/><path d="m5.230469 19.273438h-1.820313v.910156h1.820313zm0 0" fill="url(#d)"/><path d="m5.230469 19.273438h-1.820313v-.910157h1.820313zm0 0" fill="url(#e)"/><path d="m16.601562 19.273438h1.816407v.910156h-1.816407zm0 0" fill="url(#f)"/><path d="m13.683594 1.992188h-9.136719c-.503906 0-.910156.40625-.910156.910156v15.460937c0 .503907.40625.910157.910156.910157h12.734375c.503906 0 .910156-.40625.910156-.910157v-12.242187zm0 0" fill="url(#g)"/><path d="m13.683594 1.992188 4.507812 4.128906v-3.21875c0-.503906-.40625-.910156-.910156-.910156zm0 0" fill="url(#i)"/><path d="m3.636719 18.136719v.226562c0 .503907.40625.910157.910156.910157h12.734375c.503906 0 .910156-.40625.910156-.910157v-.226562c0 .503906-.40625.910156-.910156.910156h-12.734375c-.503906 0-.910156-.40625-.910156-.910156zm0 0" fill-opacity=".235294"/><path d="m4.546875 1.992188c-.503906 0-.910156.40625-.910156.910156v.226562c0-.503906.40625-.910156.910156-.910156h9.136719l4.507812 4.128906v-.226562l-4.507812-4.128906zm0 0" fill="#fff" fill-opacity=".588235"/><path d="m13.683594 1.992188.25.226562h3.347656c.503906 0 .910156.40625.910156.910156v-.226562c0-.503906-.40625-.910156-.910156-.910156zm0 0" fill="#fff" fill-opacity=".392157"/><path d="m13.683594 1.992188 4.507812 4.128906v-.378906l-4.09375-3.75zm0 0" fill-opacity=".235294"/><path d="m1203.492866 175.215918h-803.5883c-44.31932 0-80.049625 35.730305-80.049625 80.049626v1359.81295c0 44.31932 35.730305 80.049625 80.049625 80.049625h1120.007635c44.319321 0 80.049626-35.730305 80.049626-80.049625v-1076.718996zm0 0" fill="none" stroke="#212121" stroke-linecap="round" stroke-linejoin="round" stroke-width="11.338583" transform="scale(.0113699)"/><path d="m318.424137-168.640791 104.899074 96.081734v-74.901938c0-11.726153-9.453643-21.179796-21.179796-21.179796zm0 0" fill="none" stroke="#212121" stroke-linecap="round" stroke-linejoin="round" stroke-width="3" transform="matrix(.0429729 0 0 .0429729 0 9.239163)"/><path d="m7.277344 7.449219c-.125 0-.226563.101562-.226563.226562v2.730469c0 .125.101563.226562.226563.226562h.679687v-2.046874c0-.125.101563-.226563.230469-.226563h5.457031c.125 0 .226563.101563.226563.226563v2.046874h.683594c.125 0 .226562-.101562.226562-.226562v-2.730469c0-.125-.101562-.226562-.226562-.226562zm2.957031 2.273437c-.128906 0-.230469.101563-.230469.226563v2.046875h-1.136718l2.046874 1.820312 2.046876-1.820312h-1.136719v-2.046875c0-.125-.101563-.226563-.226563-.226563zm0 0" fill="url(#j)"/><path d="m7.277344 7.449219c-.125 0-.226563.101562-.226563.226562v.226563c0-.125.101563-.226563.226563-.226563h7.277344c.125 0 .226562.101563.226562.226563v-.226563c0-.125-.101562-.226562-.226562-.226562zm2.957031 2.273437c-.128906 0-.230469.101563-.230469.226563v.226562c0-.125.101563-.226562.230469-.226562h1.363281c.125 0 .226563.101562.226563.226562v-.226562c0-.125-.101563-.226563-.226563-.226563zm-1.367187 2.273438.257812.226562h.878906v-.226562zm2.957031 0v.226562h.882812l.253907-.226562zm0 0" fill="#fff" fill-opacity=".392157"/><path d="m8.1875 8.359375c-.128906 0-.230469.101563-.230469.226563v.339843c0-.125.101563-.226562.230469-.226562h5.457031c.125 0 .226563.101562.226563.226562v-.339843c0-.125-.101563-.226563-.226563-.226563zm-1.136719 2.046875v.339844c0 .125.101563.226562.226563.226562h.679687v-.339844h-.679687c-.125 0-.226563-.101562-.226563-.226562zm7.730469 0c0 .125-.101562.226562-.226562.226562h-.683594v.339844h.683594c.125 0 .226562-.101562.226562-.226562zm-5.914062 1.929688 2.046874 1.820312 2.046876-1.820312h-.382813l-1.664063 1.480468-1.660156-1.480468zm0 0" fill-opacity=".235294"/><path d="m640.053443 655.170121c-10.99394 0-19.926516 8.932576-19.926516 19.926516v240.148876c0 10.99394 8.932576 19.926517 19.926516 19.926517h59.779548v-180.025767c0-10.99394 8.932577-19.926517 20.270077-19.926517h479.954192c10.99394 0 19.926516 8.932577 19.926516 19.926517v180.025767h60.123109c10.99394 0 19.926517-8.932577 19.926517-19.926517v-240.148876c0-10.99394-8.932577-19.926516-19.926517-19.926516zm260.075392 199.952283c-11.3375 0-20.270077 8.932576-20.270077 19.926516v180.025767h-99.976141l180.025767 160.099251 180.025767-160.099251h-99.976142v-180.025767c0-10.99394-8.932576-19.926516-19.926516-19.926516zm0 0" fill="none" stroke="#212121" stroke-linecap="round" stroke-linejoin="round" stroke-width="11.338583" transform="scale(.0113699)"/></svg>

<?xml version="1.0" encoding="UTF-8"?>
<svg xmlns="http://www.w3.org/2000/svg" xmlns:xlink="http://www.w3.org/1999/xlink" width="22px" height="22px" viewBox="0 0 22 22" version="1.1">
<defs>
<linearGradient id="linear0" gradientUnits="userSpaceOnUse" x1="254" y1="233.5" x2="254" y2="254.666672" gradientTransform="matrix(0.0511582,0,0,0.0429729,-1.808356,9.239165)">
<stop offset="0" style="stop-color:rgb(0%,0%,0%);stop-opacity:0.27451;"/>
<stop offset="1" style="stop-color:rgb(0%,0%,0%);stop-opacity:0;"/>
</linearGradient>
<radialGradient id="radial0" gradientUnits="userSpaceOnUse" cx="450.908936" cy="189.579361" fx="450.908936" fy="189.579361" r="21.166656" gradientTransform="matrix(0.000000119742,-0.0537161,-0.0966889,-0.0000000698078,34.702833,43.721791)">
<stop offset="0" style="stop-color:rgb(0%,0%,0%);stop-opacity:0.313726;"/>
<stop offset="0.222222" style="stop-color:rgb(0%,0%,0%);stop-opacity:0.27451;"/>
<stop offset="1" style="stop-color:rgb(0%,0%,0%);stop-opacity:0;"/>
</radialGradient>
<radialGradient id="radial1" gradientUnits="userSpaceOnUse" cx="450.908936" cy="189.579361" fx="450.908936" fy="189.579361" r="21.166656" gradientTransform="matrix(-0.000000119742,0.0537161,0.0966889,0.0000000698078,-12.872623,-5.175142)">
<stop offset="0" style="stop-color:rgb(0%,0%,0%);stop-opacity:0.313726;"/>
<stop offset="0.222222" style="stop-color:rgb(0%,0%,0%);stop-opacity:0.27451;"/>
<stop offset="1" style="stop-color:rgb(0%,0%,0%);stop-opacity:0;"/>
</radialGradient>
<radialGradient id="radial2" gradientUnits="userSpaceOnUse" cx="450.908936" cy="189.579361" fx="450.908936" fy="189.579361" r="21.166656" gradientTransform="matrix(-0.000000119742,-0.0537161,0.0966889,-0.0000000698078,-12.872623,43.721791)">
<stop offset="0" style="stop-color:rgb(0%,0%,0%);stop-opacity:0.313726;"/>
<stop offset="0.222222" style="stop-color:rgb(0%,0%,0%);stop-opacity:0.27451;"/>
<stop offset="1" style="stop-color:rgb(0%,0%,0%);stop-opacity:0;"/>
</radialGradient>
<radialGradient id="radial3" gradientUnits="userSpaceOnUse" cx="450.908936" cy="189.579361" fx="450.908936" fy="189.579361" r="21.166656" gradientTransform="matrix(0.000000119742,0.0537161,-0.0966889,0.0000000698078,34.702832,-5.175142)">
<stop offset="0" style="stop-color:rgb(0%,0%,0%);stop-opacity:0.313726;"/>
<stop offset="0.222222" style="stop-color:rgb(0%,0%,0%);stop-opacity:0.27451;"/>
<stop offset="1" style="stop-color:rgb(0%,0%,0%);stop-opacity:0;"/>
</radialGradient>
<linearGradient id="linear1" gradientUnits="userSpaceOnUse" x1="254" y1="233.5" x2="254" y2="-168.666672" gradientTransform="matrix(0.0429729,0,0,0.0429729,0,9.239163)">
<stop offset="0" style="stop-color:rgb(87.843138%,87.843138%,87.843138%);stop-opacity:1;"/>
<stop offset="1" style="stop-color:rgb(93.333334%,93.333334%,93.333334%);stop-opacity:1;"/>
</linearGradient>
<linearGradient id="linear2" gradientUnits="userSpaceOnUse" x1="412.75" y1="-168.666656" x2="412.75" y2="233.5" gradientTransform="matrix(0.0429729,0,0,0.0429729,0,9.239163)">
<stop offset="0" style="stop-color:rgb(45.882353%,45.882353%,45.882353%);stop-opacity:1;"/>
<stop offset="1" style="stop-color:rgb(38.039216%,38.039216%,38.039216%);stop-opacity:1;"/>
</linearGradient>
<linearGradient id="linear3" gradientUnits="userSpaceOnUse" x1="4787.480469" y1="1625.639771" x2="4787.480469" y2="7370.521973" gradientTransform="matrix(0.00300829,0,0,0.00300829,-1.667822,-2.899314)">
<stop offset="0" style="stop-color:rgb(45.882353%,45.882353%,45.882353%);stop-opacity:1;"/>
<stop offset="1" style="stop-color:rgb(38.039216%,38.039216%,38.039216%);stop-opacity:1;"/>
</linearGradient>
</defs>
<g id="surface1">
<path style=" stroke:none;fill-rule:nonzero;fill:url(#linear0);" d="M 5.230469 19.273438 L 16.601562 19.273438 L 16.601562 20.183594 L 5.230469 20.183594 Z M 5.230469 19.273438 "/>
<path style=" stroke:none;fill-rule:nonzero;fill:url(#radial0);" d="M 16.601562 19.273438 L 18.417969 19.273438 L 18.417969 18.363281 L 16.601562 18.363281 Z M 16.601562 19.273438 "/>
<path style=" stroke:none;fill-rule:nonzero;fill:url(#radial1);" d="M 5.230469 19.273438 L 3.410156 19.273438 L 3.410156 20.183594 L 5.230469 20.183594 Z M 5.230469 19.273438 "/>
<path style=" stroke:none;fill-rule:nonzero;fill:url(#radial2);" d="M 5.230469 19.273438 L 3.410156 19.273438 L 3.410156 18.363281 L 5.230469 18.363281 Z M 5.230469 19.273438 "/>
<path style=" stroke:none;fill-rule:nonzero;fill:url(#radial3);" d="M 16.601562 19.273438 L 18.417969 19.273438 L 18.417969 20.183594 L 16.601562 20.183594 Z M 16.601562 19.273438 "/>
<path style=" stroke:none;fill-rule:nonzero;fill:url(#linear1);" d="M 13.683594 1.992188 L 4.546875 1.992188 C 4.042969 1.992188 3.636719 2.398438 3.636719 2.902344 L 3.636719 18.363281 C 3.636719 18.867188 4.042969 19.273438 4.546875 19.273438 L 17.28125 19.273438 C 17.785156 19.273438 18.191406 18.867188 18.191406 18.363281 L 18.191406 6.121094 Z M 13.683594 1.992188 "/>
<path style=" stroke:none;fill-rule:nonzero;fill:url(#linear2);" d="M 13.683594 1.992188 L 18.191406 6.121094 L 18.191406 2.902344 C 18.191406 2.398438 17.785156 1.992188 17.28125 1.992188 Z M 13.683594 1.992188 "/>
<path style=" stroke:none;fill-rule:nonzero;fill:rgb(0%,0%,0%);fill-opacity:0.235294;" d="M 3.636719 18.136719 L 3.636719 18.363281 C 3.636719 18.867188 4.042969 19.273438 4.546875 19.273438 L 17.28125 19.273438 C 17.785156 19.273438 18.191406 18.867188 18.191406 18.363281 L 18.191406 18.136719 C 18.191406 18.640625 17.785156 19.046875 17.28125 19.046875 L 4.546875 19.046875 C 4.042969 19.046875 3.636719 18.640625 3.636719 18.136719 Z M 3.636719 18.136719 "/>
<path style=" stroke:none;fill-rule:nonzero;fill:rgb(100%,100%,100%);fill-opacity:0.588235;" d="M 4.546875 1.992188 C 4.042969 1.992188 3.636719 2.398438 3.636719 2.902344 L 3.636719 3.128906 C 3.636719 2.625 4.042969 2.21875 4.546875 2.21875 L 13.683594 2.21875 L 18.191406 6.347656 L 18.191406 6.121094 L 13.683594 1.992188 Z M 4.546875 1.992188 "/>
<path style=" stroke:none;fill-rule:nonzero;fill:rgb(100%,100%,100%);fill-opacity:0.392157;" d="M 13.683594 1.992188 L 13.933594 2.21875 L 17.28125 2.21875 C 17.785156 2.21875 18.191406 2.625 18.191406 3.128906 L 18.191406 2.902344 C 18.191406 2.398438 17.785156 1.992188 17.28125 1.992188 Z M 13.683594 1.992188 "/>
<path style=" stroke:none;fill-rule:nonzero;fill:rgb(0%,0%,0%);fill-opacity:0.235294;" d="M 13.683594 1.992188 L 18.191406 6.121094 L 18.191406 5.742188 L 14.097656 1.992188 Z M 13.683594 1.992188 "/>
<path style="fill:none;stroke-width:11.338583;stroke-linecap:round;stroke-linejoin:round;stroke:rgb(12.941177%,12.941177%,12.941177%);stroke-opacity:1;stroke-miterlimit:4;" d="M 1203.492866 175.215918 L 399.904566 175.215918 C 355.585246 175.215918 319.854941 210.946223 319.854941 255.265544 L 319.854941 1615.078494 C 319.854941 1659.397814 355.585246 1695.128119 399.904566 1695.128119 L 1519.912201 1695.128119 C 1564.231522 1695.128119 1599.961827 1659.397814 1599.961827 1615.078494 L 1599.961827 538.359498 Z M 1203.492866 175.215918 " transform="matrix(0.0113699,0,0,0.0113699,0,0)"/>
<path style="fill:none;stroke-width:3;stroke-linecap:round;stroke-linejoin:round;stroke:rgb(12.941177%,12.941177%,12.941177%);stroke-opacity:1;stroke-miterlimit:4;" d="M 318.424137 -168.640791 L 423.323211 -72.559057 L 423.323211 -147.460995 C 423.323211 -159.187148 413.869568 -168.640791 402.143415 -168.640791 Z M 318.424137 -168.640791 " transform="matrix(0.0429729,0,0,0.0429729,0,9.239163)"/>
<path style=" stroke:none;fill-rule:nonzero;fill:url(#linear3);" d="M 7.277344 7.449219 C 7.152344 7.449219 7.050781 7.550781 7.050781 7.675781 L 7.050781 10.40625 C 7.050781 10.53125 7.152344 10.632812 7.277344 10.632812 L 7.957031 10.632812 L 7.957031 8.585938 C 7.957031 8.460938 8.058594 8.359375 8.1875 8.359375 L 13.644531 8.359375 C 13.769531 8.359375 13.871094 8.460938 13.871094 8.585938 L 13.871094 10.632812 L 14.554688 10.632812 C 14.679688 10.632812 14.78125 10.53125 14.78125 10.40625 L 14.78125 7.675781 C 14.78125 7.550781 14.679688 7.449219 14.554688 7.449219 Z M 10.234375 9.722656 C 10.105469 9.722656 10.003906 9.824219 10.003906 9.949219 L 10.003906 11.996094 L 8.867188 11.996094 L 10.914062 13.816406 L 12.960938 11.996094 L 11.824219 11.996094 L 11.824219 9.949219 C 11.824219 9.824219 11.722656 9.722656 11.597656 9.722656 Z M 10.234375 9.722656 "/>
<path style=" stroke:none;fill-rule:nonzero;fill:rgb(100%,100%,100%);fill-opacity:0.392157;" d="M 7.277344 7.449219 C 7.152344 7.449219 7.050781 7.550781 7.050781 7.675781 L 7.050781 7.902344 C 7.050781 7.777344 7.152344 7.675781 7.277344 7.675781 L 14.554688 7.675781 C 14.679688 7.675781 14.78125 7.777344 14.78125 7.902344 L 14.78125 7.675781 C 14.78125 7.550781 14.679688 7.449219 14.554688 7.449219 Z M 10.234375 9.722656 C 10.105469 9.722656 10.003906 9.824219 10.003906 9.949219 L 10.003906 10.175781 C 10.003906 10.050781 10.105469 9.949219 10.234375 9.949219 L 11.597656 9.949219 C 11.722656 9.949219 11.824219 10.050781 11.824219 10.175781 L 11.824219 9.949219 C 11.824219 9.824219 11.722656 9.722656 11.597656 9.722656 Z M 8.867188 11.996094 L 9.125 12.222656 L 10.003906 12.222656 L 10.003906 11.996094 Z M 11.824219 11.996094 L 11.824219 12.222656 L 12.707031 12.222656 L 12.960938 11.996094 Z M 11.824219 11.996094 "/>
<path style=" stroke:none;fill-rule:nonzero;fill:rgb(0%,0%,0%);fill-opacity:0.235294;" d="M 8.1875 8.359375 C 8.058594 8.359375 7.957031 8.460938 7.957031 8.585938 L 7.957031 8.925781 C 7.957031 8.800781 8.058594 8.699219 8.1875 8.699219 L 13.644531 8.699219 C 13.769531 8.699219 13.871094 8.800781 13.871094 8.925781 L 13.871094 8.585938 C 13.871094 8.460938 13.769531 8.359375 13.644531 8.359375 Z M 7.050781 10.40625 L 7.050781 10.746094 C 7.050781 10.871094 7.152344 10.972656 7.277344 10.972656 L 7.957031 10.972656 L 7.957031 10.632812 L 7.277344 10.632812 C 7.152344 10.632812 7.050781 10.53125 7.050781 10.40625 Z M 14.78125 10.40625 C 14.78125 10.53125 14.679688 10.632812 14.554688 10.632812 L 13.871094 10.632812 L 13.871094 10.972656 L 14.554688 10.972656 C 14.679688 10.972656 14.78125 10.871094 14.78125 10.746094 Z M 8.867188 12.335938 L 10.914062 14.15625 L 12.960938 12.335938 L 12.578125 12.335938 L 10.914062 13.816406 L 9.253906 12.335938 Z M 8.867188 12.335938 "/>
<path style="fill:none;stroke-width:11.338583;stroke-linecap:round;stroke-linejoin:round;stroke:rgb(12.941177%,12.941177%,12.941177%);stroke-opacity:1;stroke-miterlimit:4;" d="M 640.053443 655.170121 C 629.059503 655.170121 620.126927 664.102697 620.126927 675.096637 L 620.126927 915.245513 C 620.126927 926.239453 629.059503 935.17203 640.053443 935.17203 L 699.832991 935.17203 L 699.832991 755.146263 C 699.832991 744.152323 708.765568 735.219746 720.103068 735.219746 L 1200.05726 735.219746 C 1211.0512 735.219746 1219.983776 744.152323 1219.983776 755.146263 L 1219.983776 935.17203 L 1280.106885 935.17203 C 1291.100825 935.17203 1300.033402 926.239453 1300.033402 915.245513 L 1300.033402 675.096637 C 1300.033402 664.102697 1291.100825 655.170121 1280.106885 655.170121 Z M 900.128835 855.122404 C 888.791335 855.122404 879.858758 864.05498 879.858758 875.04892 L 879.858758 1055.074687 L 779.882617 1055.074687 L 959.908384 1215.173938 L 1139.934151 1055.074687 L 1039.958009 1055.074687 L 1039.958009 875.04892 C 1039.958009 864.05498 1031.025433 855.122404 1020.031493 855.122404 Z M 900.128835 855.122404 " transform="matrix(0.0113699,0,0,0.0113699,0,-0.000000122946)"/>
</g>
</svg>
